dist/img/logo-blue.svg

<svg width="95" height="42" viewBox="0 0 95 42" fill="none" xmlns="http://www.w3.org/2000/svg">
<path d="M18.3541 36.1877C16.0595 36.1935 13.7296 35.6338 11.5964 34.6102C9.46318 33.5837 7.53535 32.0758 5.98604 30.2315C4.43674 28.3872 3.27769 26.2008 2.61161 23.8665C2.27416 22.6979 2.07463 21.4887 1.9866 20.2766C1.90738 19.0615 1.95726 17.8407 2.12158 16.6344C2.29764 15.431 2.594 14.2421 3.00774 13.0967C3.43028 11.9542 3.96138 10.8494 4.60986 9.81705C5.90388 7.7524 7.62631 5.96614 9.63043 4.61484C11.6316 3.26354 13.9057 2.34141 16.2443 1.93544C18.58 1.53237 20.9773 1.63096 23.181 2.26312C20.8893 2.27182 18.671 2.61979 16.614 3.34473C14.56 4.06098 12.6704 5.1281 11.0477 6.4736C9.42797 7.822 8.06645 9.44007 7.05706 11.2408C6.55236 12.1398 6.12395 13.0793 5.80118 14.0536C5.46667 15.0251 5.229 16.0255 5.08815 17.0433C4.9385 18.0582 4.89155 19.0876 4.9385 20.1113C4.97665 21.1378 5.1263 22.1556 5.3581 23.1589C5.82759 25.1656 6.68147 27.0939 7.86399 28.8309C9.04651 30.5679 10.5665 32.1106 12.3417 33.3575C14.114 34.616 16.1534 35.5555 18.3541 36.1877Z" fill="#0071CE"/>
<path d="M24.4548 6.09086C26.7495 6.08507 29.0793 6.64472 31.2125 7.66835C33.3457 8.69487 35.2736 10.2028 36.8229 12.047C38.3722 13.8913 39.5312 16.0777 40.1973 18.412C40.5348 19.5806 40.7343 20.787 40.8223 21.9991C40.9015 23.2141 40.8517 24.4349 40.6873 25.6412C40.5113 26.8446 40.2149 28.0335 39.8012 29.1789C39.3786 30.3214 38.8475 31.4263 38.1991 32.4586C36.905 34.5232 35.1826 36.3095 33.1785 37.6608C31.1773 39.0121 28.9032 39.9342 26.5646 40.3402C24.2289 40.7432 21.8316 40.6447 19.6279 40.0125C21.9196 40.0038 24.1379 39.6558 26.1949 38.9309C28.2489 38.2146 30.1386 37.1475 31.7612 35.802C33.381 34.4536 34.7425 32.8355 35.7519 31.0348C36.2566 30.1358 36.685 29.1963 37.0077 28.222C37.3422 27.2506 37.5799 26.2501 37.7208 25.2323C37.8704 24.2174 37.9174 23.188 37.8704 22.1644C37.8323 21.1378 37.6826 20.12 37.4508 19.1167C36.9813 17.11 36.1274 15.1817 34.9449 13.4447C33.7624 11.7077 32.2424 10.1651 30.4672 8.91815C28.692 7.66255 26.6556 6.72302 24.4548 6.09086Z" fill="#0071CE"/>
<path d="M5.94829 18.0872C5.94242 15.8195 6.50874 13.5171 7.54454 11.409C8.58328 9.30084 10.1091 7.39568 11.9753 5.8646C13.8415 4.33351 16.054 3.1881 18.4161 2.52985C19.5986 2.19637 20.8193 1.99919 22.0458 1.9122C23.2753 1.8339 24.5106 1.8832 25.7313 2.04559C26.949 2.21957 28.1521 2.51245 29.3111 2.92132C30.4672 3.33889 31.5852 3.86375 32.6298 4.5046C34.719 5.7834 36.5265 7.48557 37.8939 9.46613C39.2613 11.4438 40.1944 13.6911 40.6052 16.0022C41.0131 18.3105 40.9133 20.6796 40.2736 22.8573C40.2648 20.5926 39.9127 18.4004 39.1791 16.3676C38.4544 14.3378 37.3745 12.4703 36.013 10.8667C34.6486 9.26604 33.0112 7.92054 31.1891 6.92302C30.2794 6.42425 29.3287 6.00089 28.3428 5.68191C27.3598 5.35134 26.3475 5.11645 25.3175 4.97726C24.2905 4.82938 23.2489 4.78298 22.2131 4.82938C21.1743 4.86707 20.1444 5.01496 19.1291 5.24404C17.0986 5.70801 15.1473 6.55185 13.3896 7.72046C11.632 8.88907 10.071 10.3912 8.80922 12.1455C7.53574 13.8999 6.58796 15.9123 5.94829 18.0872Z" fill="#0071CE"/>
<path d="M22.1277 37.4722L21.8166 31.3392C21.8166 31.3392 21.9986 30.5881 22.7703 31.1507C23.5449 31.7132 24.2022 31.8785 24.6864 31.8756C25.1705 31.8756 25.3554 31.893 25.3554 31.3885C25.3554 30.8839 24.6218 30.9825 24.39 30.8897C24.1582 30.7969 23.6975 30.3938 24.258 30.3677C24.8184 30.3387 25.417 30.3416 25.8806 30.3677C26.3443 30.3938 26.6993 30.1706 26.1007 29.8748C25.5021 29.579 24.3842 29.0686 25.2967 28.9874C26.2093 28.9063 27.9611 29.1121 29.3079 29.4601C30.6547 29.8081 31.4118 29.0309 30.9951 28.8541C30.5784 28.6772 29.2081 28.4858 29.4605 28.219C29.7128 27.9522 30.7193 27.639 30.6225 27.0678C30.5256 26.4965 30.3877 26.6241 29.7891 26.5719C29.1905 26.5197 28.6389 26.4704 28.8766 26.1283C29.1142 25.7832 29.4223 25.5599 29.2991 25.2322C29.1758 24.9046 28.3542 24.8698 27.8525 25.2322C27.3507 25.5947 26.7257 25.4178 26.2885 25.6556C25.8513 25.8934 25.2791 25.7165 25.8689 25.1162C26.4587 24.516 26.3912 24.2811 27.3038 24.2608C28.2163 24.2405 29.5426 24.5189 29.4634 23.7765C29.3842 23.0342 27.1336 23.2488 26.667 23.3619C26.2005 23.475 25.4405 23.8026 24.5602 23.8635C23.6799 23.9244 23.005 23.8084 23.2398 23.4373C23.4745 23.0661 23.7738 22.9849 24.6365 22.9849C25.4992 22.9849 26.2328 22.8747 27.1981 22.6282C28.1635 22.3817 29.4077 21.8772 29.5602 21.2653C29.7128 20.6535 29.305 20.3229 28.7474 20.2997C28.1899 20.2765 27.3947 20.3171 27.6442 19.8009C27.8965 19.2848 27.964 19.0151 27.6442 18.9426C27.3243 18.8701 26.8255 19.3892 26.3648 19.5052C25.9041 19.6241 24.5866 20.0851 24.3401 19.9227C24.0937 19.7603 24.0878 19.3921 24.5778 19.3196C25.0678 19.2471 26.2093 18.9832 26.3941 18.6613C26.579 18.3395 26.8783 17.7044 26.3824 17.5478C25.8865 17.3912 25.1559 17.1679 24.5103 17.5478C23.8648 17.9277 23.0637 18.3511 22.785 18.093C22.5062 17.8349 22.826 17.3854 23.2955 17.0809C23.765 16.7765 25.3495 16.6112 25.7809 16.4865C26.2122 16.3618 27.116 15.979 27.072 15.7963C27.025 15.6137 27.4388 14.9293 26.535 14.8162C25.6283 14.706 25.6606 14.5755 24.9651 14.6944C24.2697 14.8133 23.6124 14.6277 23.1224 15.0047C22.6324 15.3817 22.2597 16.2603 21.9282 16.3096C21.5936 16.3589 21.5496 15.776 21.9282 15.3643C22.3067 14.9554 22.5913 14.5378 22.6412 14.2885C22.6911 14.0391 23.1429 14.0014 23.4716 14.0507C23.8002 14.1 24.2345 14.1145 24.3871 13.7926C24.5397 13.4736 24.2844 12.8531 24.4458 12.4268C24.6072 12.0005 24.66 11.728 24.5103 11.5482C24.3607 11.3684 24.2433 11.8062 24.0056 11.3916C23.768 10.9769 23.812 10.8348 23.4775 10.8116C23.1429 10.7884 23.008 11.0842 22.5678 11.0494C22.1277 11.0146 21.1212 11.9541 21.1212 11.9541L21.1623 10.5651C21.1623 10.5651 21.8313 10.2723 21.8636 9.95329C21.8959 9.63431 21.4968 8.93257 21.2386 8.79918C20.9804 8.66579 20.2321 8.74118 19.9211 9.46323C19.6101 10.1853 20.2703 10.7362 20.373 10.7884C20.4757 10.8377 20.4903 12.5834 20.4903 12.5834C20.4903 12.5834 19.9064 12.1745 19.8389 11.8874C19.7714 11.6004 19.7626 11.2147 19.3049 11.3423C18.8471 11.467 18.718 11.986 18.5244 12.1339C18.3307 12.2818 18.2309 13.2126 17.6441 13.3083C17.0543 13.404 16.7667 13.5751 16.4117 13.8013C16.0566 14.0275 15.549 14.6103 15.0913 14.6103C14.6335 14.6103 13.7972 14.8046 13.7209 15.3295C13.6446 15.8572 13.8266 16.5387 14.789 16.211C15.7515 15.8833 16.8078 15.6311 17.3184 15.8369C17.826 16.0428 18.4833 16.4169 19.0379 16.8171C19.5895 17.2172 20.3935 17.8958 19.8067 18.1336C19.2198 18.3685 18.2544 17.919 17.4475 17.7798C16.6406 17.6406 16.1857 17.4637 15.2967 17.6406C14.4076 17.8175 13.3248 17.6928 13.2691 18.2061C13.2133 18.7193 14.255 18.5917 14.61 18.6816C14.9651 18.7715 15.5519 19.1717 16.2063 19.3225C16.8636 19.4733 17.2714 19.1079 17.647 19.3718C18.0226 19.6357 18.2691 20.0213 18.7415 20.0996C19.2169 20.1779 20.0766 20.3258 20.1852 20.5259C20.2938 20.726 20.37 21.1203 19.6981 21.0623C19.0261 21.0015 17.5971 20.4882 16.9956 20.5259C16.3941 20.5636 14.4985 20.5143 13.9322 20.6448C13.3659 20.7753 12.647 20.9638 12.8553 21.4712C13.0607 21.9787 14.076 22.028 14.3577 22.0541C14.6364 22.0802 14.6364 22.3122 15.0062 22.6949C15.3729 23.0777 15.5343 23.272 15.8454 23.4315C16.1564 23.5939 16.4322 23.9128 16.9457 24.1564C17.4592 24.4029 17.8788 24.7654 17.9287 25.0176C17.9786 25.2699 17.8084 25.5396 17.1981 25.3134C16.5877 25.0872 15.8014 24.8379 15.5226 24.8872C15.2438 24.9365 14.7861 25.238 14.9886 25.6904C15.191 26.1428 16.0302 26.0152 16.3853 26.1428C16.7403 26.2675 17.1599 26.4066 17.7497 26.5922C18.3395 26.7778 18.6858 26.6937 18.9176 26.8938C19.1523 27.0939 19.4722 27.2708 19.0848 27.497C18.6975 27.7231 17.9845 28.1755 17.4269 27.7724C16.8694 27.3723 16.5115 26.6734 15.9539 26.5342C15.3964 26.3921 14.0261 26.1167 13.3923 26.1689C12.7585 26.2182 12.5032 26.6966 12.5795 27.0475C12.6558 27.3984 13.1135 27.6506 13.7738 27.5984C14.434 27.5492 15.1001 28.045 15.3729 28.1001C15.6488 28.1552 15.4844 28.3959 16.039 28.7004C16.5936 29.0048 17.0572 29.2455 17.4035 29.434C17.7497 29.6254 18.6682 29.6602 18.5185 30.0459C18.3689 30.4315 17.5825 30.2054 17.4299 30.2575C17.2773 30.3068 16.4645 30.0749 16.0596 30.1271C15.6546 30.1822 15.059 31.0318 14.5308 30.6838C14.0026 30.3329 13.7503 30.1242 13.4715 30.1648C13.1928 30.2054 12.8935 30.8143 13.8266 31.4117C14.7597 32.0061 15.1705 32.415 16.1975 32.2265C17.2274 32.038 16.9604 31.5625 17.8172 31.6117C18.674 31.661 18.8706 31.922 19.2315 31.6175C19.5925 31.3131 20.0678 31.6639 20.0502 32.1917C20.0385 32.5397 19.9387 35.6105 19.8741 37.6433C20.059 37.6404 20.2439 37.6404 20.4287 37.6317C20.998 37.6114 21.5643 37.5534 22.1277 37.4722Z" fill="#0071CE"/>
<path d="M33.8327 30.3155C32.568 32.0699 31.0099 33.572 29.2522 34.7406C27.4946 35.9092 25.5433 36.7531 23.5128 37.217C23.055 37.3214 22.5943 37.4055 22.1278 37.4722C21.5644 37.5534 20.9981 37.6114 20.4288 37.6317C20.244 37.6404 20.0591 37.6404 19.8743 37.6433C19.0233 37.6549 18.1694 37.6056 17.3244 37.4838C16.2944 37.3446 15.2821 37.1068 14.2991 36.7792C13.3132 36.4602 12.3625 36.0368 11.4528 35.5381C9.63064 34.5405 7.99331 33.195 6.62886 31.5944C5.26442 29.9908 4.18753 28.1233 3.46276 26.0935C2.73212 24.0607 2.38001 21.8685 2.36827 19.6038C1.7286 21.7815 1.62883 24.1506 2.0367 26.4588C2.4475 28.77 3.3806 31.0173 4.74798 32.9949C6.11243 34.9755 7.92288 36.6777 10.0121 37.9565C11.0567 38.5973 12.1747 39.1193 13.3308 39.5398C14.4928 39.9486 15.6929 40.2386 16.9106 40.4155C18.1313 40.5779 19.3666 40.6272 20.5961 40.5489C21.8226 40.4619 23.0462 40.2647 24.2258 39.9312C26.5908 39.273 28.8004 38.1276 30.6666 36.5965C32.5328 35.0654 34.0586 33.1631 35.0974 31.0521C36.1361 28.944 36.6995 26.6415 36.6936 24.3739C36.051 26.5458 35.1032 28.5612 33.8327 30.3155Z" fill="#0071CE"/>
<path d="M44.9067 26.4456L47.7383 26.202C47.8733 27.3242 48.1843 28.2434 48.6744 28.9626C49.1644 29.6817 49.9244 30.2617 50.9572 30.7054C51.9872 31.149 53.1492 31.3694 54.4403 31.3694C55.5846 31.3694 56.597 31.2012 57.4743 30.8648C58.3517 30.5285 59.0031 30.0674 59.4315 29.4817C59.8599 28.8959 60.0741 28.255 60.0741 27.562C60.0741 26.8573 59.8687 26.2455 59.455 25.7206C59.0412 25.1958 58.3605 24.755 57.4127 24.3983C56.8024 24.1635 55.4584 23.801 53.3751 23.3051C51.2918 22.8093 49.8305 22.3453 48.9971 21.9045C47.9144 21.3449 47.1075 20.6489 46.5764 19.8167C46.0452 18.9844 45.7782 18.0565 45.7782 17.0271C45.7782 15.8962 46.1039 14.8378 46.7524 13.8547C47.4009 12.8717 48.3516 12.1236 49.5987 11.6132C50.8457 11.1028 52.2337 10.8477 53.7624 10.8477C55.4438 10.8477 56.9256 11.1144 58.2108 11.6509C59.496 12.1874 60.482 12.9732 61.1744 14.0142C61.864 15.0552 62.2367 16.2325 62.2895 17.5462L59.4109 17.7607C59.2554 16.3427 58.7331 15.2727 57.8411 14.5507C56.9491 13.8257 55.6316 13.4662 53.8886 13.4662C52.0723 13.4662 50.7489 13.7938 49.9185 14.4521C49.0881 15.1103 48.6744 15.902 48.6744 16.8299C48.6744 17.636 48.9678 18.2972 49.5576 18.8192C50.1356 19.3382 51.6439 19.8718 54.0823 20.4169C56.5207 20.9621 58.1961 21.4406 59.1028 21.8465C60.4233 22.4497 61.3975 23.2094 62.0283 24.1316C62.6563 25.0537 62.9732 26.1179 62.9732 27.3213C62.9732 28.5131 62.6269 29.6382 61.9374 30.6938C61.2449 31.7493 60.2531 32.5699 58.9591 33.1557C57.665 33.7414 56.2067 34.0343 54.587 34.0343C52.533 34.0343 50.8135 33.7385 49.4255 33.147C48.0376 32.5554 46.949 31.6652 46.1597 30.4792C45.3645 29.2874 44.9478 27.9448 44.9067 26.4456Z" fill="#0071CE" stroke="#0071CE" stroke-width="1.65" stroke-miterlimit="10"/>
<path d="M65.834 33.6475V11.2292H68.8358V33.6475H65.834Z" fill="#0071CE" stroke="#0071CE" stroke-width="1.65" stroke-miterlimit="10"/>
<path d="M83.4749 24.8552V22.2251L93.0847 22.2106V30.5301C91.6087 31.6929 90.0888 32.5658 88.5189 33.1515C86.952 33.7373 85.3411 34.0302 83.692 34.0302C81.4649 34.0302 79.4402 33.5575 77.618 32.6151C75.7958 31.6726 74.4226 30.3097 73.4954 28.5235C72.5681 26.7401 72.1016 24.7451 72.1016 22.5441C72.1016 20.3635 72.5622 18.3249 73.4865 16.4343C74.4108 14.5436 75.7372 13.1401 77.4713 12.2209C79.2055 11.3017 81.2008 10.8435 83.4602 10.8435C85.1005 10.8435 86.5823 11.1074 87.9086 11.6322C89.2349 12.1571 90.2736 12.8879 91.0277 13.8274C91.7818 14.7669 92.354 15.9877 92.7443 17.4985L90.0359 18.2321C89.6956 17.0896 89.273 16.1936 88.7683 15.5412C88.2636 14.8887 87.5418 14.3667 86.6028 13.9724C85.6639 13.5809 84.6222 13.3837 83.4778 13.3837C82.1046 13.3837 80.9191 13.5896 79.9185 14.0043C78.9179 14.416 78.111 14.9612 77.4977 15.6339C76.8845 16.3067 76.4062 17.0461 76.0658 17.8523C75.4877 19.2384 75.2002 20.7434 75.2002 22.3643C75.2002 24.3623 75.5494 26.0355 76.2448 27.381C76.9402 28.7265 77.9555 29.7269 79.2847 30.3793C80.6169 31.0318 82.0283 31.3595 83.5247 31.3595C84.8246 31.3595 86.0923 31.113 87.3305 30.6171C88.5688 30.1213 89.5078 29.5964 90.1474 29.0338V24.8581H83.4749V24.8552Z" fill="#0071CE" stroke="#0071CE" stroke-width="1.65" stroke-miterlimit="10"/>
</svg>

<svg width="95" height="42" fill="none" xmlns="http://www.w3.org/2000/svg"><path d="M18.354 36.188c-2.294.005-4.624-.554-6.758-1.578a17.005 17.005 0 01-5.61-4.378 17.32 17.32 0 01-3.374-6.366 17.529 17.529 0 01-.625-3.59c-.08-1.215-.03-2.435.135-3.642.176-1.203.472-2.392.886-3.537a17.715 17.715 0 011.602-3.28 17.502 17.502 0 015.02-5.202 17.113 17.113 0 016.614-2.68c2.336-.403 4.733-.304 6.937.328-2.292.009-4.51.357-6.567 1.082a18.028 18.028 0 00-5.566 3.129 17.13 17.13 0 00-3.99 4.767A16.107 16.107 0 005.8 14.054a15.852 15.852 0 00-.713 2.99 16.018 16.018 0 00-.15 3.067c.039 1.027.188 2.045.42 3.048a16.98 16.98 0 002.506 5.672 17.783 17.783 0 004.478 4.527c1.772 1.258 3.811 2.198 6.012 2.83zM24.455 6.09c2.295-.005 4.624.555 6.758 1.578a17.006 17.006 0 015.61 4.379 17.32 17.32 0 013.374 6.365c.338 1.169.537 2.375.625 3.587a18.21 18.21 0 01-.135 3.642 18.166 18.166 0 01-.886 3.538 17.723 17.723 0 01-1.602 3.28 17.504 17.504 0 01-5.02 5.202 17.114 17.114 0 01-6.614 2.68c-2.336.402-4.733.304-6.937-.328 2.292-.01 4.51-.357 6.567-1.082a18.028 18.028 0 005.566-3.129 17.13 17.13 0 003.99-4.767c.506-.9.934-1.839 1.257-2.813.334-.971.572-1.972.713-2.99.15-1.015.196-2.044.15-3.068a16.21 16.21 0 00-.42-3.047 16.98 16.98 0 00-2.506-5.672 17.784 17.784 0 00-4.478-4.527c-1.775-1.255-3.811-2.195-6.012-2.827z" fill="#0071CE"/><path d="M5.948 18.087c-.006-2.268.56-4.57 1.597-6.678 1.038-2.108 2.564-4.013 4.43-5.544a17.668 17.668 0 016.441-3.335 18.095 18.095 0 013.63-.618 18.868 18.868 0 013.685.134c1.218.174 2.421.466 3.58.875 1.156.418 2.274.943 3.319 1.584a17.531 17.531 0 015.264 4.961 16.692 16.692 0 012.711 6.536c.408 2.309.308 4.678-.331 6.855-.01-2.264-.361-4.457-1.095-6.49a17.707 17.707 0 00-3.166-5.5 17.245 17.245 0 00-4.824-3.944c-.91-.499-1.86-.922-2.846-1.241a16.36 16.36 0 00-3.026-.705 16.592 16.592 0 00-3.104-.148 16.776 16.776 0 00-3.084.415 17.391 17.391 0 00-5.74 2.476 17.8 17.8 0 00-4.58 4.426c-1.273 1.754-2.221 3.766-2.86 5.941z" fill="#0071CE"/><path d="M22.128 37.472l-.311-6.133s.182-.75.953-.188c.775.562 1.432.727 1.916.725.485 0 .67.017.67-.488 0-.504-.734-.405-.966-.498-.232-.093-.692-.496-.132-.522.56-.03 1.159-.026 1.623 0 .463.026.818-.197.22-.493-.599-.296-1.717-.806-.804-.888.912-.08 2.664.125 4.01.473 1.348.348 2.105-.43 1.688-.606-.417-.177-1.787-.368-1.535-.635.253-.267 1.26-.58 1.162-1.151-.096-.572-.234-.444-.833-.496-.599-.052-1.15-.102-.912-.444.237-.345.545-.568.422-.896-.123-.327-.945-.362-1.447 0-.501.363-1.126.186-1.564.424-.437.237-1.009.06-.42-.54.59-.6.523-.835 1.436-.855.912-.02 2.239.258 2.16-.485-.08-.742-2.33-.527-2.797-.414-.466.113-1.227.44-2.107.502-.88.06-1.555-.056-1.32-.427.235-.37.534-.452 1.397-.452.862 0 1.596-.11 2.561-.357.965-.246 2.21-.75 2.362-1.363.153-.611-.255-.942-.813-.965-.557-.024-1.352.017-1.103-.5.253-.515.32-.785 0-.857-.32-.073-.818.446-1.28.562-.46.12-1.777.58-2.024.418-.246-.163-.252-.53.238-.603.49-.073 1.631-.337 1.816-.659.185-.322.484-.957-.012-1.113-.495-.157-1.226-.38-1.872 0-.645.38-1.446.803-1.725.545-.279-.258.041-.708.51-1.012.47-.305 2.054-.47 2.486-.595.431-.124 1.335-.507 1.291-.69-.047-.182.367-.867-.537-.98-.907-.11-.874-.24-1.57-.122-.695.12-1.353-.066-1.843.31-.49.378-.862 1.256-1.194 1.306-.334.049-.378-.534 0-.946.379-.409.663-.826.713-1.075.05-.25.502-.288.83-.238.33.049.764.063.916-.258.153-.32-.103-.94.059-1.366.161-.426.214-.699.064-.879-.15-.18-.267.258-.504-.156-.238-.415-.194-.557-.529-.58-.334-.024-.469.272-.91.237-.44-.034-1.446.905-1.446.905l.041-1.389s.67-.293.702-.612c.032-.319-.367-1.02-.625-1.154-.259-.133-1.007-.058-1.318.664-.31.722.35 1.273.452 1.325.103.05.117 1.795.117 1.795s-.584-.409-.651-.696c-.068-.287-.076-.672-.534-.545-.458.125-.587.644-.78.792-.194.148-.294 1.079-.88 1.174-.59.096-.878.267-1.233.493-.355.226-.863.81-1.32.81-.459 0-1.295.194-1.371.718-.076.528.106 1.21 1.068.882.963-.328 2.019-.58 2.53-.374.507.206 1.164.58 1.719.98.552.4 1.355 1.079.769 1.317-.587.235-1.553-.215-2.36-.354-.806-.14-1.261-.316-2.15-.14-.89.177-1.972.053-2.028.566-.056.513.986.386 1.341.476.355.09.942.49 1.596.64.658.151 1.065-.214 1.441.05.376.264.622.65 1.095.728.475.078 1.335.226 1.443.426.109.2.185.594-.487.536-.672-.06-2.1-.574-2.702-.536-.602.038-2.497-.012-3.064.119-.566.13-1.285.319-1.077.826.206.508 1.221.557 1.503.583.278.026.278.258.648.64.367.384.528.578.84.738.31.162.586.48 1.1.724.513.247.933.61.983.862.05.252-.12.522-.73.295-.611-.226-1.398-.475-1.676-.426-.28.05-.737.351-.534.803.202.453 1.041.325 1.396.453.355.124.775.264 1.365.45.59.185.936.1 1.168.3.234.2.554.378.167.604-.387.226-1.1.678-1.658.275-.558-.4-.915-1.099-1.473-1.238-.558-.142-1.928-.417-2.562-.365-.633.05-.889.528-.813.878.077.351.534.604 1.195.551.66-.049 1.326.447 1.599.502.276.055.111.296.666.6.555.305 1.018.546 1.364.734.347.191 1.265.226 1.116.612-.15.386-.936.16-1.09.212-.152.049-.964-.183-1.37-.13-.404.054-1 .904-1.528.556-.528-.351-.78-.56-1.06-.52-.278.041-.578.65.356 1.248.933.594 1.344 1.003 2.37.815 1.03-.189.763-.664 1.62-.615.857.049 1.054.31 1.415.006.36-.305.836.046.818.574l-.176 5.451c.185-.003.37-.003.555-.011.569-.02 1.135-.079 1.699-.16z" fill="#0071CE"/><path d="M33.833 30.316a17.844 17.844 0 01-4.58 4.425 17.389 17.389 0 01-5.74 2.476c-.458.104-.919.189-1.385.255-.564.081-1.13.14-1.7.16-.184.008-.369.008-.554.011a16.321 16.321 0 01-2.55-.16 16.602 16.602 0 01-3.025-.704 16.503 16.503 0 01-2.846-1.24 17.247 17.247 0 01-4.824-3.945 17.65 17.65 0 01-3.166-5.5c-.73-2.033-1.083-4.226-1.095-6.49-.64 2.178-.74 4.547-.331 6.855a16.691 16.691 0 002.711 6.536 17.496 17.496 0 005.264 4.962 18.304 18.304 0 003.319 1.583c1.162.409 2.362.699 3.58.876 1.22.162 2.456.211 3.685.133a18.059 18.059 0 003.63-.618 17.644 17.644 0 006.44-3.334c1.867-1.532 3.393-3.434 4.431-5.545 1.04-2.108 1.602-4.41 1.597-6.678-.643 2.172-1.59 4.187-2.861 5.942z" fill="#0071CE"/><path d="M44.907 26.446l2.831-.244c.135 1.122.446 2.041.936 2.76.49.72 1.25 1.3 2.283 1.743 1.03.444 2.192.664 3.483.664 1.145 0 2.157-.168 3.034-.504.878-.336 1.53-.798 1.958-1.383a3.185 3.185 0 00.642-1.92c0-.705-.205-1.317-.619-1.841-.414-.525-1.094-.966-2.042-1.323-.61-.235-1.955-.597-4.038-1.093s-3.544-.96-4.378-1.4c-1.083-.56-1.89-1.256-2.42-2.088a5.073 5.073 0 01-.799-2.79c0-1.13.326-2.19.974-3.172.649-.983 1.6-1.731 2.847-2.242 1.247-.51 2.635-.765 4.163-.765 1.682 0 3.164.266 4.449.803 1.285.536 2.271 1.322 2.963 2.363.69 1.041 1.063 2.219 1.115 3.532l-2.878.215c-.156-1.418-.678-2.488-1.57-3.21-.892-.725-2.21-1.085-3.952-1.085-1.817 0-3.14.328-3.97.986-.83.658-1.245 1.45-1.245 2.378 0 .806.294 1.467.884 1.99.578.518 2.086 1.052 4.524 1.597 2.439.545 4.114 1.024 5.02 1.43 1.321.603 2.296 1.362 2.926 2.285.628.922.945 1.986.945 3.19 0 1.191-.346 2.316-1.036 3.372-.692 1.055-1.684 1.876-2.978 2.462-1.294.585-2.752.878-4.372.878-2.054 0-3.774-.295-5.162-.887-1.387-.592-2.476-1.482-3.265-2.668-.795-1.192-1.212-2.534-1.253-4.033zm20.927 7.202V11.229h3.002v22.419h-3.002zm17.641-8.793v-2.63l9.61-.014v8.32c-1.476 1.162-2.996 2.035-4.566 2.62a13.686 13.686 0 01-4.827.88c-2.227 0-4.252-.474-6.074-1.416s-3.195-2.305-4.123-4.092c-.927-1.783-1.393-3.778-1.393-5.979 0-2.18.46-4.22 1.385-6.11.924-1.89 2.25-3.294 3.984-4.213 1.734-.92 3.73-1.377 5.99-1.377 1.64 0 3.121.263 4.448.788 1.326.525 2.365 1.256 3.119 2.195.754.94 1.326 2.16 1.716 3.671l-2.708.734c-.34-1.142-.763-2.038-1.268-2.69-.504-.653-1.226-1.175-2.165-1.57-.94-.391-1.98-.588-3.125-.588-1.373 0-2.559.206-3.56.62-1 .412-1.807.957-2.42 1.63a7.762 7.762 0 00-1.432 2.218c-.578 1.386-.866 2.891-.866 4.512 0 1.998.35 3.671 1.045 5.017.695 1.346 1.71 2.346 3.04 2.998a9.51 9.51 0 004.24.98c1.3 0 2.567-.246 3.805-.742 1.239-.496 2.178-1.02 2.817-1.583v-4.176h-6.672v-.003z" fill="#0071CE" stroke="#0071CE" stroke-width="1.65" stroke-miterlimit="10"/></svg>
